Papirus/32x32/apps/converseen.svg

<?xml version="1.0" encoding="UTF-8" standalone="no"?>
<svg xmlns="http://www.w3.org/2000/svg" height="32" width="32" version="1">
 <ellipse rx="12" ry="10" cy="16" cx="16" fill="#ccc"/>
 <g fill="#9ccd44" transform="matrix(.7 0 0 .7 -2.9 -.8)">
  <path transform="translate(2)" d="m22.143 4v3c-9.389 0-17.143 7.611-17.143 17 0 5.6431 2.75 10.644 6.9824 13.736 1.9893 1.2887 4.3615-3.0761 2.0391-4.7715-2.468-2.197-4.022-5.399-4.022-8.964 0-6.627 5.515-12 12.143-12v3l10-5.2857z"/>
 </g>
 <g fill="#5db43e" transform="matrix(-.7 0 0 -.7 34.9 32.8)">
  <path transform="matrix(-1,0,0,-1,52,48)" d="m37.264 10.029c-1.7552-0.0047-3.3173 3.5224-1.2852 5.0059 2.467 2.198 4.021 5.4 4.021 8.965 0 6.627-5.515 12-12.143 12v-3l-10 5.2857 10 5.7143v-3c9.389 0 17.143-7.611 17.143-17 0-5.643-2.75-10.644-6.982-13.736-0.249-0.161-0.504-0.234-0.754-0.235z"/>
 </g>
 <g transform="matrix(.7 0 0 .7 -2.9 .19937)">
  <path opacity=".2" d="m20.09 5.4805-6.09 3.2187v1l7-3.6992-0.91-0.5195zm-6.09 1.1191c-4.6392 0-8.5 3.7614-8.5 8.4004 0 0.165 0.018 0.326 0.0273 0.488 0.2726-4.399 4.0062-7.8884 8.4727-7.8884v-1zm9.086 1.25c-0.148 0.6809-0.029 1.416 0.6 1.875 1.613 1.4364 2.654 3.4894 2.787 5.7874 0.01-0.17 0.027-0.339 0.027-0.512 0-2.495-1.087-4.737-2.814-6.2754-0.32-0.2335-0.507-0.5412-0.6-0.875zm-21.059 7.6114c-0.0082 0.18-0.0273 0.357-0.0273 0.539 0 3.95 1.926 7.451 4.8887 9.615 1.1135 0.722 2.3926-1.086 2.0312-2.447-0.2416 1.072-1.1817 1.998-2.0312 1.447-2.8457-2.079-4.7166-5.395-4.8614-9.154zm27.946 0.078c-0.289 6.32-5.583 11.361-11.973 11.361v1c6.572 0 12-5.328 12-11.9 0-0.156-0.021-0.306-0.027-0.461zm-18.063 9.981-0.91 0.48l7 4v-1l-6.09-3.48z" transform="matrix(1.4286,0,0,1.4286,4.1429,1.1429)"/>
 </g>
 <g fill="#fff" transform="matrix(.7 0 0 .7 -2.9 -.8)">
  <path d="M 14 2 L 14 3 L 20.089844 6.4804688 L 21 6 L 14 2 z M 14 4.0996094 C 7.4276685 4.0996094 2 9.4280682 2 16 C 2 16.156003 2.0214435 16.305934 2.0273438 16.460938 C 2.3164494 10.140811 7.6093717 5.0996094 14 5.0996094 L 14 4.0996094 z M 24.583984 6.2207031 C 23.631965 6.2181831 22.766931 7.6989858 23.085938 8.8496094 C 23.272941 7.9899919 23.897971 7.2189034 24.583984 7.2207031 C 24.759988 7.2212029 24.937324 7.2719655 25.111328 7.3847656 C 27.957385 9.4638076 29.827653 12.779988 29.972656 16.539062 C 29.980657 16.359059 30 16.182003 30 16 C 30 12.049921 28.074387 8.549209 25.111328 6.3847656 C 24.937324 6.2719634 24.759988 6.2212029 24.583984 6.2207031 z" transform="matrix(1.4285714,0,0,1.4285714,4.1428571,1.1428571)" style="fill:#ffffff;fill-opacity:1;opacity:0.1"/>
 </g>
</svg>

<?xml version="1.0" encoding="UTF-8" standalone="no"?>
<svg xmlns="http://www.w3.org/2000/svg" height="32" width="32" version="1">
 <ellipse rx="12" ry="10" cy="16" cx="16" fill="#ccc"/>
 <g fill="#9ccd44" transform="matrix(.7 0 0 .7 -2.9 -.8)">
  <path transform="translate(2)" d="m22.143 4v3c-9.389 0-17.143 7.611-17.143 17 0 5.6431 2.75 10.644 6.9824 13.736 1.9893 1.2887 4.3615-3.0761 2.0391-4.7715-2.468-2.197-4.022-5.399-4.022-8.964 0-6.627 5.515-12 12.143-12v3l10-5.2857z"/>
 </g>
 <g fill="#5db43e" transform="matrix(-.7 0 0 -.7 34.9 32.8)">
  <path transform="matrix(-1,0,0,-1,52,48)" d="m37.264 10.029c-1.7552-0.0047-3.3173 3.5224-1.2852 5.0059 2.467 2.198 4.021 5.4 4.021 8.965 0 6.627-5.515 12-12.143 12v-3l-10 5.2857 10 5.7143v-3c9.389 0 17.143-7.611 17.143-17 0-5.643-2.75-10.644-6.982-13.736-0.249-0.161-0.504-0.234-0.754-0.235z"/>
 </g>
 <g transform="matrix(.7 0 0 .7 -2.9 .19937)">
  <path opacity=".2" d="m20.09 5.4805-6.09 3.2187v1l7-3.6992-0.91-0.5195zm-6.09 1.1191c-4.6392 0-8.5 3.7614-8.5 8.4004 0 0.165 0.018 0.326 0.0273 0.488 0.2726-4.399 4.0062-7.8884 8.4727-7.8884v-1zm9.086 1.25c-0.148 0.6809-0.029 1.416 0.6 1.875 1.613 1.4364 2.654 3.4894 2.787 5.7874 0.01-0.17 0.027-0.339 0.027-0.512 0-2.495-1.087-4.737-2.814-6.2754-0.32-0.2335-0.507-0.5412-0.6-0.875zm-21.059 7.6114c-0.0082 0.18-0.0273 0.357-0.0273 0.539 0 3.95 1.926 7.451 4.8887 9.615 1.1135 0.722 2.3926-1.086 2.0312-2.447-0.2416 1.072-1.1817 1.998-2.0312 1.447-2.8457-2.079-4.7166-5.395-4.8614-9.154zm27.946 0.078c-0.289 6.32-5.583 11.361-11.973 11.361v1c6.572 0 12-5.328 12-11.9 0-0.156-0.021-0.306-0.027-0.461zm-18.063 9.981-0.91 0.48l7 4v-1l-6.09-3.48z" transform="matrix(1.4286,0,0,1.4286,4.1429,1.1429)"/>
 </g>
 <g fill="#fff" transform="matrix(.7 0 0 .7 -2.9 -.8)">
  <path opacity=".2" transform="matrix(1.4286 0 0 1.4286 4.1429 1.1429)" d="m14 2v1l6.09 3.4805 0.91-0.4805-7-4zm0 2.0996c-6.5722 0-12 5.3282-12 11.9 0 0.156 0.0214 0.306 0.0273 0.461 0.2891-6.32 5.5825-11.361 11.973-11.361v-1.0004zm10.584 2.1211c-0.952-0.0025-1.817 1.4783-1.498 2.6289 0.187-0.8596 0.812-1.6307 1.498-1.6289 0.176 0.0005 0.353 0.0513 0.527 0.1641 2.846 2.079 4.717 5.3952 4.862 9.1542 0.008-0.18 0.027-0.357 0.027-0.539 0-3.95-1.926-7.4508-4.889-9.6152-0.174-0.1128-0.351-0.1636-0.527-0.1641zm-19.057 10.267c-0.0105 0.17-0.0273 0.339-0.0273 0.512 0 2.495 1.0869 4.737 2.8145 6.275 0.3257 0.238 0.5149 0.552 0.6054 0.893 0.1545-0.686 0.0285-1.43-0.6054-1.893-1.6135-1.436-2.6548-3.489-2.7872-5.787zm20.946 0.024c-0.273 4.399-4.006 7.888-8.473 7.888v1c4.639 0 8.5-3.761 8.5-8.4 0-0.165-0.018-0.326-0.027-0.488zm-8.473 5.789l-7 3.699 0.91 0.52 6.09-3.219v-1z"/>
 </g>
</svg>
